Yaru++-Dark/apps/16/chrome-store.svg

<svg height="16" viewBox="0 0 16 16" width="16" xmlns="http://www.w3.org/2000/svg">
  <path d="m13.596 14.769h.589c.346 0 .615-.269.615-.615v-10.462h-13.538v10.462c-.002.164.062.321.178.437s.274.18.437.178h.249c-.183-.576-.282-1.187-.282-1.816.002-1.34.452-2.64 1.277-3.695l2.785 4.823.003-.001c.158.274.369.507.616.689h2.891l.397-.688-.002-.001c.199-.343.303-.731.304-1.127-.001-.555-.207-1.091-.579-1.504h4.143c.129.491.195.997.196 1.504 0 .633-.098 1.243-.279 1.816zm-6.796-13.538h2.462c.346 0 .615.269.615.615v.616h-3.692v-.616c0-.346.27-.615.615-.615zm0-1.231c-1.014 0-1.846.832-1.846 1.846v.616h-4.923v11.692c0 1.014.832 1.846 1.846 1.846h12.308c1.014 0 1.846-.832 1.846-1.846v-11.692h-4.923v-.616c0-1.014-.832-1.846-1.846-1.846zm1.059 6.938c-1.576 0-3.089.619-4.213 1.724l2.072 3.589c.303-.926 1.167-1.553 2.141-1.554h5.574c-.919-2.271-3.123-3.758-5.574-3.759zm0 4.511c-.83 0-1.503.674-1.504 1.504 0 .399.159.781.441 1.063.282.283.664.441 1.063.441s.782-.158 1.064-.44c.282-.283.44-.665.44-1.064s-.158-.781-.44-1.063-.665-.441-1.064-.441z" fill="#f2f2f7" fill-rule="evenodd"/>
</svg>

<svg xmlns="http://www.w3.org/2000/svg" style="isolation:isolate" width="16" height="16" viewBox="0 0 16 16">
 <defs>
  <style id="current-color-scheme" type="text/css">
   .ColorScheme-Text { color: #f2f2f7; } .ColorScheme-Highlight { color: #5294e2; }
  </style>
 </defs>
 <path fill="currentColor" class="ColorScheme-Text" fill-rule="evenodd" d="M 13.596 14.769 L 14.185 14.769 C 14.531 14.769 14.8 14.5 14.8 14.154 L 14.8 3.692 L 1.262 3.692 L 1.262 3.692 L 1.262 14.154 C 1.26 14.318 1.324 14.475 1.44 14.591 C 1.556 14.707 1.714 14.771 1.877 14.769 L 2.126 14.769 C 1.943 14.193 1.844 13.582 1.844 12.953 C 1.846 11.613 2.296 10.313 3.121 9.258 L 3.121 9.258 L 3.121 9.258 L 5.906 14.081 L 5.909 14.08 C 6.067 14.354 6.278 14.587 6.525 14.769 L 6.525 14.769 L 9.416 14.769 L 9.813 14.081 L 9.811 14.08 C 10.01 13.737 10.114 13.349 10.115 12.953 C 10.114 12.398 9.908 11.862 9.536 11.449 L 9.536 11.449 L 9.536 11.449 L 13.679 11.449 C 13.808 11.94 13.874 12.446 13.875 12.953 C 13.875 13.586 13.777 14.196 13.596 14.769 L 13.596 14.769 Z M 6.8 1.231 L 9.262 1.231 C 9.608 1.231 9.877 1.5 9.877 1.846 L 9.877 2.462 L 6.185 2.462 L 6.185 1.846 C 6.185 1.5 6.455 1.231 6.8 1.231 L 6.8 1.231 Z M 6.8 0 C 5.786 0 4.954 0.832 4.954 1.846 L 4.954 2.462 L 0.031 2.462 L 0.031 14.154 C 0.031 15.168 0.863 16 1.877 16 L 14.185 16 C 15.199 16 16.031 15.168 16.031 14.154 L 16.031 2.462 L 11.108 2.462 L 11.108 1.846 C 11.108 0.832 10.276 0 9.262 0 L 6.8 0 L 6.8 0 Z M 7.859 6.938 C 6.283 6.938 4.77 7.557 3.646 8.662 L 5.718 12.251 C 6.021 11.325 6.885 10.698 7.859 10.697 L 13.433 10.697 C 12.514 8.426 10.31 6.939 7.859 6.938 L 7.859 6.938 L 7.859 6.938 L 7.859 6.938 Z M 7.859 11.449 C 7.029 11.449 6.356 12.123 6.355 12.953 C 6.355 13.352 6.514 13.734 6.796 14.016 C 7.078 14.299 7.46 14.457 7.859 14.457 C 8.258 14.457 8.641 14.299 8.923 14.017 C 9.205 13.734 9.363 13.352 9.363 12.953 C 9.363 12.554 9.205 12.172 8.923 11.89 C 8.641 11.608 8.258 11.449 7.859 11.449 L 7.859 11.449 L 7.859 11.449 L 7.859 11.449 Z"/>
</svg>
